X:836
T:Hickey's
R:reel
H:See also #527
D:Mick O'Brien & Caoimh\'in \'O Raghallaigh: Kitty Lie Over
Z:id:hn-reel-836
M:C|
L:1/8
K:D
d2cd BE~E2 | (3FED AD FDFA | dBed BE~E2 | EBed cABc |
d2cA BE~E2 | FDAD FDFA | dBed BE~E2 | EBed cABc ||
d2fd adfd | defd BAFA | d2fd adfd | B2ed BAFA |
d2fd adfd | defd BAFA | d2fd c2ec | ~B3c dAFA ||
P:variations
d2cA BE~E2 | FD~D2 FABc | d2cA BE~E2 | Beed cABc |
d2cA BE~E2 | FD~D2 FABc | d2cd BE~E2 | efed cABc ||
d2fd adfd | d2fd Be~e2 | d2fd adfd | (3Bcd AF ~E3z |
d2fd adfd | d2fd Be~e2 | dfed cABc | dBAF ~E3z ||

